img/about-top/arrow-right.svg

<svg width="14" height="14" viewBox="0 0 14 14" fill="none" xmlns="http://www.w3.org/2000/svg">
<path d="M6.41668 13.0833C6.2639 12.9306 6.1839 12.7361 6.17668 12.5C6.16946 12.2639 6.24251 12.0694 6.39585 11.9167L10.4792 7.83333H1.16668C0.930569 7.83333 0.732513 7.75333 0.572513 7.59333C0.412513 7.43333 0.332791 7.23556 0.333346 7C0.333346 6.76389 0.413346 6.56583 0.573346 6.40583C0.733346 6.24583 0.931124 6.16611 1.16668 6.16667H10.4792L6.39585 2.08333C6.24307 1.93056 6.17001 1.73611 6.17668 1.5C6.18335 1.26389 6.26335 1.06944 6.41668 0.916666C6.56946 0.763889 6.7639 0.6875 7.00001 0.6875C7.23612 0.6875 7.43057 0.763889 7.58335 0.916666L13.0833 6.41667C13.1667 6.48611 13.2258 6.57306 13.2608 6.6775C13.2958 6.78194 13.3131 6.88944 13.3125 7C13.3125 7.11111 13.2953 7.21528 13.2608 7.3125C13.2264 7.40972 13.1672 7.5 13.0833 7.58333L7.58335 13.0833C7.43057 13.2361 7.23612 13.3125 7.00001 13.3125C6.7639 13.3125 6.56946 13.2361 6.41668 13.0833Z" fill="white"/>
</svg>

<svg width="14" height="14" fill="none" xmlns="http://www.w3.org/2000/svg"><path d="M6.417 13.083a.828.828 0 01-.24-.583.754.754 0 01.219-.583l4.083-4.084H1.167a.807.807 0 01-.594-.24A.803.803 0 01.333 7c0-.236.08-.434.24-.594.16-.16.358-.24.594-.24h9.312L6.396 2.084a.758.758 0 01-.22-.583.823.823 0 01.24-.583A.79.79 0 017 .687a.79.79 0 01.583.23l5.5 5.5c.084.07.143.156.178.26a.991.991 0 010 .636.721.721 0 01-.178.27l-5.5 5.5a.79.79 0 01-.583.23.79.79 0 01-.583-.23z" fill="#fff"/></svg>
